topics/special-relativity/Latex/images/svg/circular_waves_from_stationary_source.svg

<?xml version="1.0" encoding="UTF-8"?>
<svg xmlns="http://www.w3.org/2000/svg" xmlns:xlink="http://www.w3.org/1999/xlink" width="453.942pt" height="453.942pt" viewBox="0 0 453.942 453.942" version="1.1">
<defs>
<clipPath id="clip1">
  <path d="M 0 0 L 453.941406 0 L 453.941406 453.941406 L 0 453.941406 Z M 0 0 "/>
</clipPath>
</defs>
<g id="surface1">
<g clip-path="url(#clip1)" clip-rule="nonzero">
<path style=" stroke:none;fill-rule:nonzero;fill:rgb(100%,89.411926%,78.431702%);fill-opacity:1;" d="M 0 453.941406 L 453.941406 453.941406 L 453.941406 0 L 0 0 Z M 0 453.941406 "/>
<path style="fill:none;stroke-width:0.3985;stroke-linecap:butt;stroke-linejoin:miter;stroke:rgb(100%,0%,0%);stroke-opacity:1;stroke-miterlimit:10;" d="M 226.775094 -0.00165625 C 226.775094 125.244438 125.243844 226.775688 0.00165625 226.775688 C -125.244438 226.775688 -226.775688 125.244438 -226.775688 -0.00165625 C -226.775688 -125.243844 -125.244438 -226.775094 0.00165625 -226.775094 C 125.243844 -226.775094 226.775094 -125.243844 226.775094 -0.00165625 Z M 226.775094 -0.00165625 " transform="matrix(1,0,0,-1,226.971,226.971)"/>
</g>
<path style="fill:none;stroke-width:0.3985;stroke-linecap:butt;stroke-linejoin:miter;stroke:rgb(100%,0%,0%);stroke-opacity:1;stroke-miterlimit:10;" d="M 198.427438 -0.00165625 C 198.427438 109.588188 109.5915 198.428031 0.00165625 198.428031 C -109.588188 198.428031 -198.428031 109.588188 -198.428031 -0.00165625 C -198.428031 -109.5915 -109.588188 -198.427438 0.00165625 -198.427438 C 109.5915 -198.427438 198.427438 -109.5915 198.427438 -0.00165625 Z M 198.427438 -0.00165625 " transform="matrix(1,0,0,-1,226.971,226.971)"/>
<path style="fill:none;stroke-width:0.3985;stroke-linecap:butt;stroke-linejoin:miter;stroke:rgb(100%,0%,0%);stroke-opacity:1;stroke-miterlimit:10;" d="M 170.079781 -0.00165625 C 170.079781 93.935844 93.93525 170.080375 0.00165625 170.080375 C -93.935844 170.080375 -170.080375 93.935844 -170.080375 -0.00165625 C -170.080375 -93.93525 -93.935844 -170.079781 0.00165625 -170.079781 C 93.93525 -170.079781 170.079781 -93.93525 170.079781 -0.00165625 Z M 170.079781 -0.00165625 " transform="matrix(1,0,0,-1,226.971,226.971)"/>
<path style="fill:none;stroke-width:0.3985;stroke-linecap:butt;stroke-linejoin:miter;stroke:rgb(100%,0%,0%);stroke-opacity:1;stroke-miterlimit:10;" d="M 141.732125 -0.00165625 C 141.732125 78.279594 78.279 141.732719 0.00165625 141.732719 C -78.279594 141.732719 -141.732719 78.279594 -141.732719 -0.00165625 C -141.732719 -78.279 -78.279594 -141.732125 0.00165625 -141.732125 C 78.279 -141.732125 141.732125 -78.279 141.732125 -0.00165625 Z M 141.732125 -0.00165625 " transform="matrix(1,0,0,-1,226.971,226.971)"/>
<path style="fill:none;stroke-width:0.3985;stroke-linecap:butt;stroke-linejoin:miter;stroke:rgb(100%,0%,0%);stroke-opacity:1;stroke-miterlimit:10;" d="M 113.388375 -0.00165625 C 113.388375 62.623344 62.62275 113.388969 0.00165625 113.388969 C -62.623344 113.388969 -113.388969 62.623344 -113.388969 -0.00165625 C -113.388969 -62.62275 -62.623344 -113.388375 0.00165625 -113.388375 C 62.62275 -113.388375 113.388375 -62.62275 113.388375 -0.00165625 Z M 113.388375 -0.00165625 " transform="matrix(1,0,0,-1,226.971,226.971)"/>
<path style="fill:none;stroke-width:0.3985;stroke-linecap:butt;stroke-linejoin:miter;stroke:rgb(100%,0%,0%);stroke-opacity:1;stroke-miterlimit:10;" d="M 85.040719 -0.00165625 C 85.040719 46.967094 46.9665 85.041313 0.00165625 85.041313 C -46.967094 85.041313 -85.041313 46.967094 -85.041313 -0.00165625 C -85.041313 -46.9665 -46.967094 -85.040719 0.00165625 -85.040719 C 46.9665 -85.040719 85.040719 -46.9665 85.040719 -0.00165625 Z M 85.040719 -0.00165625 " transform="matrix(1,0,0,-1,226.971,226.971)"/>
<path style="fill:none;stroke-width:0.3985;stroke-linecap:butt;stroke-linejoin:miter;stroke:rgb(100%,0%,0%);stroke-opacity:1;stroke-miterlimit:10;" d="M 56.693062 -0.00165625 C 56.693062 31.310844 31.31025 56.693656 0.00165625 56.693656 C -31.310844 56.693656 -56.693656 31.310844 -56.693656 -0.00165625 C -56.693656 -31.31025 -31.310844 -56.693062 0.00165625 -56.693062 C 31.31025 -56.693062 56.693062 -31.31025 56.693062 -0.00165625 Z M 56.693062 -0.00165625 " transform="matrix(1,0,0,-1,226.971,226.971)"/>
<path style="fill:none;stroke-width:0.3985;stroke-linecap:butt;stroke-linejoin:miter;stroke:rgb(100%,0%,0%);stroke-opacity:1;stroke-miterlimit:10;" d="M 28.345406 -0.00165625 C 28.345406 15.654594 15.654 28.346 0.00165625 28.346 C -15.654594 28.346 -28.346 15.654594 -28.346 -0.00165625 C -28.346 -15.654 -15.654594 -28.345406 0.00165625 -28.345406 C 15.654 -28.345406 28.345406 -15.654 28.345406 -0.00165625 Z M 28.345406 -0.00165625 " transform="matrix(1,0,0,-1,226.971,226.971)"/>
<path style="fill-rule:nonzero;fill:rgb(100%,0%,0%);fill-opacity:1;stroke-width:0.3985;stroke-linecap:butt;stroke-linejoin:miter;stroke:rgb(0%,0%,0%);stroke-opacity:1;stroke-miterlimit:10;" d="M 6.974312 -0.00165625 C 6.974312 3.849906 3.853219 6.974906 0.00165625 6.974906 C -3.849906 6.974906 -6.974906 3.849906 -6.974906 -0.00165625 C -6.974906 -3.853219 -3.849906 -6.974312 0.00165625 -6.974312 C 3.853219 -6.974312 6.974312 -3.853219 6.974312 -0.00165625 Z M 6.974312 -0.00165625 " transform="matrix(1,0,0,-1,226.971,226.971)"/>
</g>
</svg>

<svg xmlns="http://www.w3.org/2000/svg" width="605.26" height="605.26" viewBox="0 0 453.94 453.94"><defs><clipPath id="a"><path d="M0 0h453.94v453.94H0Zm0 0"/></clipPath></defs><g clip-path="url(#a)"><path d="M0 453.94h453.94V0H0Zm0 0" style="stroke:none;fill-rule:nonzero;fill:#ffe4c8;fill-opacity:1"/><path d="M226.78 0c0 125.24-101.54 226.78-226.78 226.78S-226.78 125.24-226.78 0-125.24-226.78 0-226.78 226.78-125.24 226.78 0Zm0 0" style="fill:none;stroke-width:.3985;stroke-linecap:butt;stroke-linejoin:miter;stroke:red;stroke-opacity:1;stroke-miterlimit:10" transform="matrix(1 0 0 -1 226.97 226.97)"/></g><path d="M198.43 0c0 109.59-88.84 198.43-198.43 198.43S-198.43 109.59-198.43 0-109.59-198.43 0-198.43 198.43-109.59 198.43 0Zm0 0" style="fill:none;stroke-width:.3985;stroke-linecap:butt;stroke-linejoin:miter;stroke:red;stroke-opacity:1;stroke-miterlimit:10" transform="matrix(1 0 0 -1 226.97 226.97)"/><path d="M170.08 0c0 93.94-76.14 170.08-170.08 170.08S-170.08 93.94-170.08 0-93.94-170.08 0-170.08 170.08-93.94 170.08 0Zm0 0" style="fill:none;stroke-width:.3985;stroke-linecap:butt;stroke-linejoin:miter;stroke:red;stroke-opacity:1;stroke-miterlimit:10" transform="matrix(1 0 0 -1 226.97 226.97)"/><path d="M141.73 0c0 78.28-63.45 141.73-141.73 141.73S-141.73 78.28-141.73 0-78.28-141.73 0-141.73 141.73-78.28 141.73 0Zm0 0" style="fill:none;stroke-width:.3985;stroke-linecap:butt;stroke-linejoin:miter;stroke:red;stroke-opacity:1;stroke-miterlimit:10" transform="matrix(1 0 0 -1 226.97 226.97)"/><path d="M113.39 0c0 62.62-50.77 113.39-113.39 113.39S-113.39 62.62-113.39-.01c0-62.61 50.77-113.38 113.4-113.38 62.61 0 113.38 50.77 113.38 113.39Zm0 0" style="fill:none;stroke-width:.3985;stroke-linecap:butt;stroke-linejoin:miter;stroke:red;stroke-opacity:1;stroke-miterlimit:10" transform="matrix(1 0 0 -1 226.97 226.97)"/><path d="M85.04 0A85.04 85.04 0 1 1-85.04 0 85.04 85.04 0 0 1 85.04 0Zm0 0" style="fill:none;stroke-width:.3985;stroke-linecap:butt;stroke-linejoin:miter;stroke:red;stroke-opacity:1;stroke-miterlimit:10" transform="matrix(1 0 0 -1 226.97 226.97)"/><path d="M56.7 0A56.7 56.7 0 1 1-56.7 0 56.7 56.7 0 0 1 56.7 0Zm0 0" style="fill:none;stroke-width:.3985;stroke-linecap:butt;stroke-linejoin:miter;stroke:red;stroke-opacity:1;stroke-miterlimit:10" transform="matrix(1 0 0 -1 226.97 226.97)"/><path d="M28.35 0a28.35 28.35 0 1 1-56.7 0 28.35 28.35 0 0 1 56.7 0Zm0 0" style="fill:none;stroke-width:.3985;stroke-linecap:butt;stroke-linejoin:miter;stroke:red;stroke-opacity:1;stroke-miterlimit:10" transform="matrix(1 0 0 -1 226.97 226.97)"/><path d="M6.97 0A6.98 6.98 0 1 1-6.98 0 6.98 6.98 0 0 1 6.97 0Zm0 0" style="fill-rule:nonzero;fill:red;fill-opacity:1;stroke-width:.3985;stroke-linecap:butt;stroke-linejoin:miter;stroke:#000;stroke-opacity:1;stroke-miterlimit:10" transform="matrix(1 0 0 -1 226.97 226.97)"/></svg>
